src/general/components/img/settings.svg

<svg height="20" viewBox="0 0 20 20" width="20" xmlns="http://www.w3.org/2000/svg"><g fill="#fff"><path d="m19.45 8.0772-2.846-.8128 1.4376-2.5876c.1344-.242.092-.5444-.104-.7404l-1.8748-1.8744c-.196-.196-.498-.238-.74-.1036l-2.588 1.4376-.8132-2.8464c-.076-.2664-.3196-.45-.5964-.45h-2.6512c-.2768 0-.5204.1836-.5964.45l-.8132 2.8464-2.5876-1.4376c-.242-.1344-.544-.0924-.7404.1036l-1.8744 1.8744c-.196.196-.2384.498-.1036.7404l1.4372 2.5876-2.846.8128c-.2664.076-.45.3196-.45.5964v2.6516c0 .2768.1836.5204.45.5964l2.8464.8132-1.4376 2.5876c-.1344.242-.0924.544.1036.74l1.8744 1.8752c.196.1956.498.238.7404.1036l2.5876-1.4376.8132 2.8456c.076.2664.3196.45.5964.45h2.6512c.2768 0 .5204-.1836.5964-.45l.8132-2.8456 2.588 1.4376c.2416.1348.544.092.74-.1036l1.8752-1.8752c.1956-.1956.238-.4976.1036-.74l-1.438-2.5876 2.8464-.8132c.266-.076.45-.3196.45-.5964v-2.6516c0-.2768-.184-.52-.45-.5964zm-.7912 2.7804-3.1476.8996c-.182.052-.3304.184-.4028.3584-.0724.1752-.0608.3736.0308.5392l1.59 2.8616-1.2128 1.2132-2.8616-1.59c-.1656-.092-.364-.1036-.5392-.0312-.1748.0728-.3068.2212-.3588.4032l-.8992 3.1468h-1.7152l-.8992-3.1468c-.052-.182-.184-.3304-.3588-.4032-.1752-.0724-.3736-.0608-.5388.0312l-2.8616 1.59-1.2132-1.2132 1.59-2.8616c.0916-.1656.1032-.364.0308-.5392-.0724-.1748-.2204-.3068-.4024-.3584l-3.1476-.8996v-1.7156l3.1472-.8992c.182-.052.3304-.1844.4028-.3592s.0612-.3732-.0308-.5384l-1.59-2.8616 1.2128-1.2128 2.862 1.59c.1652.092.3636.1036.5388.0308.1748-.0724.3068-.2204.3588-.4024l.8992-3.1476h1.7152l.8992 3.1476c.052.182.1844.33.3588.4024.1752.0728.3736.0612.5392-.0308l2.8616-1.59 1.2128 1.2128-1.5896 2.8616c-.092.1652-.1036.3636-.0312.5384.0728.1748.2208.3072.4028.3592l3.1476.8992z"/><path d="m12.8872 7.1128c-.7712-.7712-1.7964-1.196-2.8872-1.196-2.2516 0-4.0832 1.832-4.0832 4.0836 0 2.2512 1.832 4.0824 4.0832 4.0824 1.0908 0 2.116-.4248 2.8872-1.1952.7716-.7712 1.196-1.7964 1.196-2.8872s-.4248-2.1164-1.196-2.8876zm-2.8872 5.7292c-1.5672 0-2.8428-1.2752-2.8428-2.8416 0-1.5676 1.2752-2.8428 2.8428-2.8428s2.842 1.2752 2.842 2.8428c0 1.5668-1.2744 2.8416-2.842 2.8416z"/></g></svg>

<?xml version="1.0" encoding="UTF-8"?>
<svg width="20px" height="20px" viewBox="0 0 20 20" version="1.1" xmlns="http://www.w3.org/2000/svg" xmlns:xlink="http://www.w3.org/1999/xlink">
    <!-- Generator: Sketch 48.2 (47327) - http://www.bohemiancoding.com/sketch -->
    <title>noun_1095721</title>
    <desc>Created with Sketch.</desc>
    <defs></defs>
    <g id="My-account-landing-Copy" stroke="none" stroke-width="1" fill="none" fill-rule="evenodd" transform="translate(-281.000000, -240.000000)">
        <g id="Settings" transform="translate(262.000000, 240.000000)" fill="#FFFFFF" fill-rule="nonzero">
            <g id="noun_1095721" transform="translate(19.000000, 0.000000)">
                <path d="M19.45,8.0772 L16.604,7.2644 L18.0416,4.6768 C18.176,4.4348 18.1336,4.1324 17.9376,3.9364 L16.0628,2.062 C15.8668,1.866 15.5648,1.824 15.3228,1.9584 L12.7348,3.396 L11.9216,0.5496 C11.8456,0.2832 11.602,0.0996 11.3252,0.0996 L8.674,0.0996 C8.3972,0.0996 8.1536,0.2832 8.0776,0.5496 L7.2644,3.396 L4.6768,1.9584 C4.4348,1.824 4.1328,1.866 3.9364,2.062 L2.062,3.9364 C1.866,4.1324 1.8236,4.4344 1.9584,4.6768 L3.3956,7.2644 L0.5496,8.0772 C0.2832,8.1532 0.0996,8.3968 0.0996,8.6736 L0.0996,11.3252 C0.0996,11.602 0.2832,11.8456 0.5496,11.9216 L3.396,12.7348 L1.9584,15.3224 C1.824,15.5644 1.866,15.8664 2.062,16.0624 L3.9364,17.9376 C4.1324,18.1332 4.4344,18.1756 4.6768,18.0412 L7.2644,16.6036 L8.0776,19.4492 C8.1536,19.7156 8.3972,19.8992 8.674,19.8992 L11.3252,19.8992 C11.602,19.8992 11.8456,19.7156 11.9216,19.4492 L12.7348,16.6036 L15.3228,18.0412 C15.5644,18.176 15.8668,18.1332 16.0628,17.9376 L17.938,16.0624 C18.1336,15.8668 18.176,15.5648 18.0416,15.3224 L16.6036,12.7348 L19.45,11.9216 C19.716,11.8456 19.9,11.602 19.9,11.3252 L19.9,8.6736 C19.9,8.3968 19.716,8.1536 19.45,8.0772 Z M18.6588,10.8576 L15.5112,11.7572 C15.3292,11.8092 15.1808,11.9412 15.1084,12.1156 C15.036,12.2908 15.0476,12.4892 15.1392,12.6548 L16.7292,15.5164 L15.5164,16.7296 L12.6548,15.1396 C12.4892,15.0476 12.2908,15.036 12.1156,15.1084 C11.9408,15.1812 11.8088,15.3296 11.7568,15.5116 L10.8576,18.6584 L9.1424,18.6584 L8.2432,15.5116 C8.1912,15.3296 8.0592,15.1812 7.8844,15.1084 C7.7092,15.036 7.5108,15.0476 7.3456,15.1396 L4.484,16.7296 L3.2708,15.5164 L4.8608,12.6548 C4.9524,12.4892 4.964,12.2908 4.8916,12.1156 C4.8192,11.9408 4.6712,11.8088 4.4892,11.7572 L1.3416,10.8576 L1.3416,9.142 L4.4888,8.2428 C4.6708,8.1908 4.8192,8.0584 4.8916,7.8836 C4.964,7.7088 4.9528,7.5104 4.8608,7.3452 L3.2708,4.4836 L4.4836,3.2708 L7.3456,4.8608 C7.5108,4.9528 7.7092,4.9644 7.8844,4.8916 C8.0592,4.8192 8.1912,4.6712 8.2432,4.4892 L9.1424,1.3416 L10.8576,1.3416 L11.7568,4.4892 C11.8088,4.6712 11.9412,4.8192 12.1156,4.8916 C12.2908,4.9644 12.4892,4.9528 12.6548,4.8608 L15.5164,3.2708 L16.7292,4.4836 L15.1396,7.3452 C15.0476,7.5104 15.036,7.7088 15.1084,7.8836 C15.1812,8.0584 15.3292,8.1908 15.5112,8.2428 L18.6588,9.142 L18.6588,10.8576 Z" id="Shape"></path>
                <path d="M12.8872,7.1128 C12.116,6.3416 11.0908,5.9168 10,5.9168 C7.7484,5.9168 5.9168,7.7488 5.9168,10.0004 C5.9168,12.2516 7.7488,14.0828 10,14.0828 C11.0908,14.0828 12.116,13.658 12.8872,12.8876 C13.6588,12.1164 14.0832,11.0912 14.0832,10.0004 C14.0832,8.9096 13.6584,7.884 12.8872,7.1128 Z M10,12.842 C8.4328,12.842 7.1572,11.5668 7.1572,10.0004 C7.1572,8.4328 8.4324,7.1576 10,7.1576 C11.5676,7.1576 12.842,8.4328 12.842,10.0004 C12.842,11.5672 11.5676,12.842 10,12.842 Z" id="Shape"></path>
            </g>
        </g>
    </g>
</svg>
